src/assets/watchill.svg

<svg width="233" height="36" viewBox="0 0 233 36" fill="none" xmlns="http://www.w3.org/2000/svg">
<g clip-path="url(#clip0_659_227)">
<path d="M48.5875 1.10706L37.9133 35.1342H29.5718L24.4709 14.4414H24.3823L19.0231 35.1342H10.6668L0 1.10706H9.79575L14.8007 20.0736H14.9188L19.4955 1.10706H29.1658L33.6761 20.0736H33.7942L38.777 1.10706H48.5875Z" fill="#DB0660"/>
<path d="M64.6208 29.6337H53.607L51.8796 35.1342H42.2832L54.7143 1.10706H63.4913L75.9519 35.1342H66.3555L64.6208 29.6337ZM62.2143 21.99L59.1508 12.2178H59.0548L55.984 21.99H62.2143Z" fill="#DB0660"/>
<path d="M80.1302 9.22618H71.3975V1.10706H97.9722V9.22618H89.2616V35.1342H80.1302V9.22618Z" fill="#DB0660"/>
<path d="M117.711 27.8271C115.08 27.8271 112.557 26.7913 110.696 24.9477C108.835 23.1041 107.79 20.6036 107.79 17.9963C107.79 15.3891 108.835 12.8886 110.696 11.045C112.557 9.20135 115.08 8.16561 117.711 8.16561C119.211 8.16672 120.69 8.50424 122.039 9.15284C123.388 9.80145 124.571 10.7443 125.499 11.9107L131.205 7.07575C129.495 5.02981 127.353 3.38014 124.93 2.24279C122.506 1.10545 119.861 0.508067 117.18 0.492676C105.738 0.492676 99.2715 8.37042 99.2715 18.0475C99.2715 29.385 107.62 35.4634 117.18 35.4634C119.859 35.4807 122.507 34.906 124.934 33.7811C127.36 32.6562 129.502 31.0095 131.205 28.9608L125.477 24.082C124.552 25.2467 123.373 26.1886 122.028 26.8372C120.683 27.4858 119.207 27.8242 117.711 27.8271Z" fill="white"/>
<path d="M133.878 1.10706H143.179V14.6755H153.514V1.10706H162.808V35.1342H153.536V22.6995H143.201V35.1342H133.878V1.10706Z" fill="white"/>
<path d="M168.454 1.10706H177.777V35.1342H168.454V1.10706Z" fill="white"/>
<path d="M183.085 1.10706H192.334V27.0444H205.976V35.1342H183.092L183.085 1.10706Z" fill="white"/>
<path d="M209.32 1.10706H218.57V27.0444H232.212V35.1342H209.328L209.32 1.10706Z" fill="white"/>
<path d="M124.658 18.1207C124.658 19.8867 123.951 21.5805 122.691 22.8299C121.432 24.0794 119.723 24.7823 117.941 24.7842C116.157 24.7842 114.447 24.0822 113.185 22.8325C111.924 21.5829 111.216 19.888 111.216 18.1207C111.216 17.246 111.39 16.3798 111.728 15.5718C112.066 14.7637 112.561 14.0296 113.186 13.4114C113.811 12.7933 114.552 12.3031 115.368 11.969C116.184 11.635 117.058 11.4635 117.941 11.4645C118.837 11.4609 119.724 11.6402 120.547 11.9911C120.078 12.2418 119.686 12.6135 119.413 13.0668C119.14 13.52 118.996 14.038 118.996 14.5658C118.996 15.3418 119.307 16.086 119.861 16.6347C120.415 17.1834 121.166 17.4916 121.949 17.4916C122.427 17.4912 122.898 17.3759 123.321 17.1554C123.744 16.935 124.106 16.6162 124.378 16.2262C124.565 16.8405 124.66 17.4789 124.658 18.1207Z" fill="#DB0660"/>
</g>
<defs>
<clipPath id="clip0_659_227">
<rect width="232.204" height="35" fill="white" transform="translate(0 0.5)"/>
</clipPath>
</defs>
</svg>

<svg width="233" height="36" fill="none" xmlns="http://www.w3.org/2000/svg">
    <g clip-path="url(#a)">
        <path d="M48.587 1.107 37.913 35.134h-8.341L24.47 14.441h-.089l-5.359 20.693h-8.356L0 1.107h9.796L14.8 20.074h.118l4.576-18.967h9.67l4.511 18.967h.118l4.983-18.967h9.81ZM64.62 29.634H53.608l-1.727 5.5h-9.597L54.714 1.107h8.777l12.46 34.027h-9.595l-1.735-5.5Zm-2.406-7.644-3.063-9.772h-.096l-3.071 9.772h6.23ZM80.13 9.226h-8.733V1.107h26.575v8.12h-8.71v25.907H80.13V9.226Z" fill="#DB0660"/>
        <path d="M117.711 27.827a9.968 9.968 0 0 1-7.015-2.88 9.784 9.784 0 0 1-2.906-6.95 9.784 9.784 0 0 1 2.906-6.952 9.968 9.968 0 0 1 7.015-2.88c1.5.002 2.979.34 4.328.988a9.904 9.904 0 0 1 3.46 2.758l5.706-4.835a18.323 18.323 0 0 0-6.275-4.833 18.497 18.497 0 0 0-7.75-1.75c-11.442 0-17.909 7.877-17.909 17.555 0 11.337 8.349 17.415 17.909 17.415a18.16 18.16 0 0 0 7.754-1.682 17.997 17.997 0 0 0 6.271-4.82l-5.728-4.879a9.887 9.887 0 0 1-3.449 2.755 9.985 9.985 0 0 1-4.317.99ZM133.878 1.107h9.301v13.568h10.335V1.107h9.294v34.027h-9.272V22.7h-10.335v12.434h-9.323V1.107ZM168.454 1.107h9.323v34.027h-9.323V1.107ZM183.085 1.107h9.249v25.937h13.642v8.09h-22.884l-.007-34.027ZM209.32 1.107h9.25v25.937h13.642v8.09h-22.884l-.008-34.027Z" fill="#fff"/>
        <path d="M124.658 18.12a6.63 6.63 0 0 1-1.967 4.71 6.759 6.759 0 0 1-9.506.003 6.633 6.633 0 0 1-1.969-4.712c0-.875.174-1.741.512-2.55a6.645 6.645 0 0 1 1.458-2.16 6.728 6.728 0 0 1 2.182-1.442 6.772 6.772 0 0 1 2.573-.505 6.578 6.578 0 0 1 2.606.527c-.469.25-.861.623-1.134 1.076a2.904 2.904 0 0 0 .448 3.568 2.967 2.967 0 0 0 4.517-.409c.187.614.282 1.253.28 1.895Z" fill="#DB0660"/>
    </g>
    <defs>
        <clipPath id="a">
            <path fill="#fff" transform="translate(0 .5)" d="M0 0h232.204v35H0z"/>
        </clipPath>
    </defs>
</svg>
